X:7118
T:The Neale
O:england
R:jig
C:Ed Reavy
M:6/8
L:1/8
N:Dedicated to the people of this quaint region
N:of Mayo. Ed was the guest of his daugher-in-law's
N:family (the Murphys) when he visited the Neale in 1969.
N:He was charmed by the simplicity of their life
N:and the realization that many of his own
N:childhood values still remained there.
N:If his plan had been to return to Ireland,
N:the Neale, he felt, would have been a fitting
N:place to settle. But the exile seldom returns in
N:the end, and so the Neale too becomes
N:another part of his ultimate dream.
K:A
g|aec aec|fga ecA|aec aec|B2 c dcB|aec aec|
fga Bcd|gfe dBG|AGA A2:||d|c2 a ecA|cBc ecA|
c2 d e2 f|gfe dB^G|A2 a ecA|cBc efg|aec dBG|
ABA  A2:||


